src/svg/sunny.svg

<svg xmlns="http://www.w3.org/2000/svg" width="1000" height="1000" viewBox="0 0 1000 1000"><path fill="#020202" d="M500.474 233.659c-15.228 0-27.579-12.352-27.579-27.579v-77.819c0-15.266 12.352-27.626 27.579-27.626 15.274 0 27.626 12.36 27.626 27.626v77.819c0 15.228-12.352 27.579-27.626 27.579zm370.231 292.987h-77.838c-15.219 0-27.579-12.351-27.579-27.625 0-15.229 12.36-27.626 27.579-27.626h77.838c15.218 0 27.616 12.397 27.616 27.626 0 15.274-12.398 27.625-27.616 27.625zm-663.636 0h-77.811c-15.228 0-27.579-12.351-27.579-27.625 0-15.229 12.352-27.626 27.579-27.626h77.811c15.237 0 27.579 12.397 27.579 27.626 0 15.274-12.341 27.625-27.579 27.625zm89.456-199.281c-10.765 10.811-28.238 10.811-39.012 0l-55.028-55.028c-10.765-10.765-10.765-28.248 0-39.059 10.764-10.765 28.247-10.765 39.049 0l54.991 55.038c10.811 10.801 10.811 28.285 0 39.049zm505.955-55.028l-55.01 55.028c-10.765 10.811-28.247 10.811-39.049 0-10.765-10.765-10.765-28.248 0-39.049l55.047-55.038c10.765-10.765 28.247-10.765 39.012 0 10.802 10.811 10.802 28.294 0 39.059zm-302.006 627.036c-15.228 0-27.579-12.397-27.579-27.635v-77.819c0-15.256 12.352-27.616 27.579-27.616 15.274 0 27.626 12.36 27.626 27.616v77.819c0 15.238-12.352 27.635-27.626 27.635zm-203.949-187.727l-54.991 55.028c-10.802 10.765-28.285 10.765-39.049 0-10.765-10.802-10.765-28.284 0-39.049l55.028-55.028c10.773-10.765 28.247-10.765 39.012 0 10.811 10.764 10.811 28.247 0 39.049zm505.955 55.028c-10.765 10.765-28.247 10.765-39.012 0l-55.047-55.028c-10.765-10.802-10.765-28.284 0-39.049 10.802-10.765 28.284-10.765 39.049 0l55.01 55.028c10.802 10.765 10.802 28.247 0 39.049zm-302.006-39.55c-125.962 0-228.057-102.132-228.057-228.104 0-125.963 102.095-228.066 228.057-228.066 125.972 0 228.104 102.104 228.104 228.066-.001 125.972-102.133 228.104-228.104 228.104zm0-395.036c-92.203 0-166.932 74.721-166.932 166.933s74.729 166.987 166.932 166.987c92.212 0 166.969-74.775 166.969-166.987s-74.757-166.933-166.969-166.933z"/></svg>

<?xml version="1.0" encoding="utf-8"?>
<!-- Generator: Adobe Illustrator 16.0.0, SVG Export Plug-In . SVG Version: 6.00 Build 0)  -->
<!DOCTYPE svg PUBLIC "-//W3C//DTD SVG 1.1//EN" "http://www.w3.org/Graphics/SVG/1.1/DTD/svg11.dtd">
<svg version="1.1" id="Layer_1" xmlns="http://www.w3.org/2000/svg" xmlns:xlink="http://www.w3.org/1999/xlink" x="0px" y="0px"
	 width="1000px" height="1000px" viewBox="0 0 1000 1000" enable-background="new 0 0 1000 1000" xml:space="preserve">
<path fill="#020202" d="M500.474,233.659c-15.228,0-27.579-12.352-27.579-27.579v-77.819c0-15.266,12.352-27.626,27.579-27.626
	c15.274,0,27.626,12.36,27.626,27.626v77.819C528.1,221.308,515.748,233.659,500.474,233.659L500.474,233.659z M870.705,526.646
	h-77.838c-15.219,0-27.579-12.351-27.579-27.625c0-15.229,12.36-27.626,27.579-27.626h77.838c15.218,0,27.616,12.397,27.616,27.626
	C898.321,514.295,885.923,526.646,870.705,526.646L870.705,526.646z M207.069,526.646h-77.811
	c-15.228,0-27.579-12.351-27.579-27.625c0-15.229,12.352-27.626,27.579-27.626h77.811c15.237,0,27.579,12.397,27.579,27.626
	C234.648,514.295,222.307,526.646,207.069,526.646L207.069,526.646z M296.525,327.365c-10.765,10.811-28.238,10.811-39.012,0
	l-55.028-55.028c-10.765-10.765-10.765-28.248,0-39.059c10.764-10.765,28.247-10.765,39.049,0l54.991,55.038
	C307.336,299.117,307.336,316.601,296.525,327.365L296.525,327.365z M802.48,272.337l-55.01,55.028
	c-10.765,10.811-28.247,10.811-39.049,0c-10.765-10.765-10.765-28.248,0-39.049l55.047-55.038c10.765-10.765,28.247-10.765,39.012,0
	C813.282,244.089,813.282,261.572,802.48,272.337L802.48,272.337z M500.474,899.373c-15.228,0-27.579-12.397-27.579-27.635v-77.819
	c0-15.256,12.352-27.616,27.579-27.616c15.274,0,27.626,12.36,27.626,27.616v77.819C528.1,886.976,515.748,899.373,500.474,899.373
	L500.474,899.373z M296.525,711.646l-54.991,55.028c-10.802,10.765-28.285,10.765-39.049,0c-10.765-10.802-10.765-28.284,0-39.049
	l55.028-55.028c10.773-10.765,28.247-10.765,39.012,0C307.336,683.361,307.336,700.844,296.525,711.646L296.525,711.646z
	 M802.48,766.674c-10.765,10.765-28.247,10.765-39.012,0l-55.047-55.028c-10.765-10.802-10.765-28.284,0-39.049
	c10.802-10.765,28.284-10.765,39.049,0l55.01,55.028C813.282,738.39,813.282,755.872,802.48,766.674L802.48,766.674z
	 M500.474,727.124c-125.962,0-228.057-102.132-228.057-228.104c0-125.963,102.095-228.066,228.057-228.066
	c125.972,0,228.104,102.104,228.104,228.066C728.577,624.992,626.445,727.124,500.474,727.124L500.474,727.124z M500.474,332.088
	c-92.203,0-166.932,74.721-166.932,166.933s74.729,166.987,166.932,166.987c92.212,0,166.969-74.775,166.969-166.987
	S592.686,332.088,500.474,332.088L500.474,332.088z"/>
</svg>
